X:1
T:D minor Amos Bull, 1795
T:Isaac Watts, 1719 (Psalm 8)   66. 86. (S. M.)
T:Psalm 8 No copyright. Transcribed from The Responsary, 1795.
%%score [ 1 2 3 4 ]
L:1/8
M:3/4
K:F
V:1 treble nm="Treble 1" snm="Tr. 1"
V:2 treble nm="Treble 2" snm="Tr. 2"
V:3 treble-8 nm="Tenor" snm="T."
V:4 bass nm="Bass" snm="B."
V:1
 A2 | d4 A2 | FAGF G2 | A4 A2 | cdcB A2 | (Ad e2) e2 | d4 d2 | cA FG A/B/ c/B/ | Afec d2 | %9
w: 1.~O|Lord, our|heav'n- * * * ly|King, Thy|name~ * * * is|all * * di-|vine; Thy|glo- ries round the earth * are *|spread,~ * * * And|
w: 2.~When|to the|worlds~ * * * on|high, I|raise~~ * * * my|won- * * dering|eyes, And|see the moon, com- plete * in *|light,~ * * * A-|
 AG F2 D2 | G4 A2 | dedc d2 | (D/E/F/G/ F2) E2 | D6 |] %14
w: o'er the heav'ns they|shine, And|o'er~~ * * * the|heav'ns~~ * * * * they|shine.|
w: dorn the dark- some|skies, A-|dorn~ * * * the|dark~- * * * * some|skies.|
V:2
 A2 | A4 c2 | dcBA G2 | F4 D2 | A4 c2 | (AG/F/ E2) A2 | D4 A2 | Ac de fe | (dc/B/ A2) A2 | %9
w: 3.~When|I sur-|vey~ * * * the|stars, And|all their|shin- * * * ing|forms, Lord,|what is man, that worth- less|thing,~ * * * A-|
w: 4.~Lord,|what is|worth- * * * less|man, That|Thou shouldst|love~ * * * him|so? Next|to Thine an- gels is he|placed,~ * * * And|
 FG A2 A2 | c4 c2 | A4 d2 | (F/G/A/B/ A2) A2 | A6 |] %14
w: kin to dust and|worms, A-|kin to|dust~ * * * * and|worms.|
w: lord of all be-|low, And|lord of|all~ * * * * be-|low.|
V:3
 A2 | A4 c2 | (F2 GA) c2 | d4 A2 | (F2 ED) A2 | cBAG A2 | A4 d2 | AF DG A/B/ A/G/ | F2 c2 F2 | %9
w: 5.~Thine|hon- ors|crown~ * * his|head, While|beasts, * * like|slaves,~ * * * o-|bey, And|birds that cut the air * with *|wings,~ * And|
w: 6.~How|rich Thy|boun- * * ties|are! And|won- * * drous|are * * * Thy|ways: Of|dust and worms Thy power * can *|frame~ * A|
 AB A2 F2 | (GF E2) A2 | FEAc Ad | (fe d2) ^c2 | d6 |] %14
w: fish that cleave the|seas, * * And|fish~ * * * that *|cleave~ * * the|sea.|
w: mon- u- ment of|praise, * * A|mon- * * * u- *|ment~ * * of|praise.|
V:4
 D,2 | D,4 A,2 | F,4 E,2 | D,4 D,2 | A,4 F,2 | E,4 A,,2 | D,4 D,2 | F,F, F,E, D, A,/G,/ | F,4 D,2 | %9
w: 7.~Out|of the|mouths of|babes And|suck- lings|Thou canst|draw Sur-|pris- ing hon- ors to Thy *|name, And|
w: 8.~O|Lord, our|heav'n- ly|King, Thy|name is|all di-|vine; Thy|glo- ries round the earth are *|spread, And|
 F,E, D,2 D,2 | C,4 C,2 | F,4 D,2 | A,,4 A,,2 | D,6 |] %14
w: strike the world with|awe, And|strike the|world with|awe.|
w: o'er the heav'ns they|shine, And|o'er the|heav'ns they|shine.|

